www/assets/icons/gavel.svg

<svg width="24" height="24" viewBox="0 0 24 24" xmlns="http://www.w3.org/2000/svg" fill='currentColor'><path d="M8.47338 5.24283L5.64338 8.06963L19.7774 22.2196L22.6074 19.3928L8.47338 5.24283Z"/><path d="M12.7076 0.999268L9.87955 3.82807L15.5372 9.48407L18.3652 6.65527L12.7076 0.999268Z"/><path d="M4.2211 9.48712L1.3927 12.3155L7.0495 17.9723L9.8779 15.1439L4.2211 9.48712Z"/><path d="M13.3938 21.0008H1.39381V23.0008H13.3938V21.0008Z"/></svg>

<svg xmlns="http://www.w3.org/2000/svg" width="24" height="24" viewBox="0 0 24 24" fill='currentColor'><path d="M8.473 5.243 5.643 8.07l14.134 14.15 2.83-2.827zM12.708 1 9.88 3.827l5.657 5.656 2.828-2.829zM4.221 9.487l-2.828 2.829 5.657 5.656 2.828-2.828zM13.394 21h-12v2h12z"/></svg>
